svgs/duotone/keynote.svg

<svg xmlns="http://www.w3.org/2000/svg" viewBox="0 0 512 512"><!-- Font Awesome Pro 6.0.0-alpha2 by @fontawesome - https://fontawesome.com License - https://fontawesome.com/license (Commercial License) --><defs><style>.fa-secondary{opacity:.4}</style></defs><path d="M336 448H288V352H224V448H176C149.49 448 128 469.49 128 496V496C128 504.837 135.163 512 144 512H368C376.837 512 384 504.837 384 496V496C384 469.49 362.51 448 336 448ZM144 160C144 122.375 170.25 91 206.625 82.5C215.25 90.75 227 96 240 96H304C330.5 96 352 74.5 352 48S330.5 0 304 0H240C217.625 0 199 15.375 193.75 36C137.75 49.75 96 99.875 96 160H144Z" class="fa-secondary"/><path d="M508.625 281.25L456.875 177.75C451.375 166.875 440.375 160 428.25 160H83.75C71.625 160 60.625 166.875 55.125 177.75L3.375 281.25C1.125 285.625 0 290.625 0 295.5V320C0 337.625 14.375 352 32 352H480C497.625 352 512 337.625 512 320V295.5C512 290.625 510.875 285.75 508.625 281.25Z" class="fa-primary"/></svg>

<svg xmlns="http://www.w3.org/2000/svg" viewBox="0 0 512 512"><!--! Font Awesome Pro 6.0.0-alpha3 by @fontawesome - https://fontawesome.com License - https://fontawesome.com/license (Commercial License) --><defs><style>.fa-secondary{opacity:.4}</style></defs><path class="fa-primary" d="M508.6 281.2L456.9 177.8C451.4 166.9 440.4 160 428.2 160H83.75C71.62 160 60.62 166.9 55.12 177.8L3.375 281.2C1.125 285.6 0 290.6 0 295.5V320c0 17.62 14.38 32 32 32h448c17.62 0 32-14.38 32-32V295.5C512 290.6 510.9 285.8 508.6 281.2z"/><path class="fa-secondary" d="M336 448H288v-96H224v96H175.1C149.5 448 128 469.5 128 495.1C128 504.8 135.2 512 144 512h224c8.837 0 16-7.163 16-16C384 469.5 362.5 448 336 448zM144 160c0-37.62 26.25-69 62.62-77.5C215.2 90.75 227 96 240 96h64C330.5 96 352 74.5 352 48S330.5 0 304 0h-64C217.6 0 199 15.38 193.8 36C137.8 49.75 96 99.88 96 160H144z"/></svg>
